X:1
T:En hymn till stjärnan
T:Alice Tegnér (1864-1943)
T:Text: E N Söderberg
T:En hymn till stjärnan
T:©PA Aglert Edition may be freely distributed, duplicated, performed and recorded
T:©PA Aglert Edition may be freely distributed, duplicated, performed and recorded
T:©PA Aglert Edition may be freely distributed, duplicated, performed and recorded
T:©PA Aglert Edition may be freely distributed, duplicated, performed and recorded
C:Alice Tegnér (1864-1943)
Z:©PA Aglert
Z:Edition may be freely distributed, duplicated, performed and recorded
%%score [ ( 1 2 ) 3 ( 4 5 ) ( 6 7 ) ]
L:1/8
Q:1/4=74
M:4/4
K:Db
V:1 treble nm="S"
V:2 treble 
V:3 treble nm="A"
V:4 treble-8 nm="T"
V:5 treble-8 
V:6 bass nm="B"
V:7 bass 
V:1
"^Andante"!p! A2 |"^dolce" d2 d2 d2 d2 | d4 d2 d2 | f3 f e2 c2 | e6!p! B2 | B3 B B2 (BA) | %6
w: O,|stjär- na du som|tän- des i|Ös- ter- land en|gång, när|Fräl- sa- ren oss *|
 A4 A2!pp! A2 | =A3 A A2 ^G2 | =A4 A2 A2 |[K:C]!<(! A3 A c2!<)!"^molto" c2 | [ce]6 c2 |!f! f4 f4 | %12
w: sän- des, när|Fräl- sa- ren oss|sän- des vid|äng- la- ska- rors|sång, vid||
!>(! [ce]8-!>)! | [ce]4 z2!p! E2 | E2 E2 E2 E2 | E4 E2 z2 | z8 | z8 | z8 | z8 | z4 z2 D2 | %21
w: sång.|* Hur|sek- ler än för-|run- nit,|||||din|
 F2!<(! F2 F2 ^F2!<)! | (^F>G) G2 z4 | z4 z2!p! _E2 | _E3 F _G2 _A2 | [E^G-]4 G4 | %26
w: glans har ej för-|brun- * nit,|men|ba- nar vä- gen|ljus, *|
 !courtesy!=A4!<(! ^c4!<)! |[K:Db] d6 z2 |!>(! (e4 d4)!>)! | e4 d2!<(! d2!<)! | %30
w: vä- gen|ljus,|hem, *|hem till vår|
 (g2"^allergando" f2) e4 |!f! d8- |!>(! d8!>)!!p! |] %33
w: Fa- * ders|hus.||
V:2
 x2 | x8 | x8 | x8 | x8 | x8 | x8 | x8 | x8 |[K:C] x8 | x8 | (c2 BA) B2"^allergando" G2 | x8 | x8 | %14
w: |||||||||||äng- * la- ska- rors|||
 x8 | x8 | x8 | x8 | x8 | x8 | x8 | x8 | x8 | x8 | x8 | x8 | x8 |[K:Db] x8 | x8 | x8 | x8 | x8 | %32
w: ||||||||||||||||||
 x8 |] %33
w: |
V:3
!p! A2 |"^dolce" A2 (GA) B2 (AG) | A4 A2 B2 | A3 A A2 A2 | =G6!p! G2 | !courtesy!_G3 G G2 G2 | %6
w: O,|stjär- na * du som *|tän- des i|Ös- ter- land en|gång, när|Fräl- sa- ren oss|
 (G2 FE) F2!pp! F2 | =E3 E E2 E2 | (=D2 ^C=B,) C2 C2 |[K:C]!<(! C3 C [C^F]2!<)!"^molto" [DF]2 | %10
w: sän- * * des, när|Fräl- sa- ren oss|sän- * * des vid|äng- la- ska- rors|
 [EG]6 [EG]2 |!f! [D!courtesy!=F]3 F F2 [B,F]2 |!>(! [EG]8-!>)! | [EG]4 z2!p! E2 | %14
w: sång, vid|äng- la- ska- rors|sång.|* Hur|
 E2 (DC) D2 (CB,) | C4 C2 A,2 | B,2 E2 ^G,2 A,2 | (C3 B,) A,4 | z8 | z8 | z8 | z2 D2 D2 D2 | %22
w: sek- ler * än för- *|run- nit, hur|sek- ler än för-|run- * nit||||har ej för-|
 (D>_E) E2 z2!p! _B,2 | _D3 D D2 D2 | C3 _D _E2 C2 | (^C4 E4) | %26
w: brun- * nit, men|ba- nar vä- gen,|ba- nar vä- gen|ljus, *|
 ^C3 !courtesy!=D!<(! !courtesy!=E2 G2!<)! |[K:Db] [FA]6 z2 |!>(! ([E=A]4 [DB]4)!>)! | %29
w: ba- nar vä- gen|ljus,|hem, *|
 [DB]4 [D!courtesy!_A]2!<(! [DA]2!<)! | (B2 A2) ([GB]2 [GA]2) |!f! [FA]8- |!>(! [FA]8!>)!!p! |] %33
w: hem till vår|Fa- * ders *|hus.||
V:4
 z2!p! |"^dolce" f2 (ea) g2 (fe) | f4 f2 f2 | [cf]3 c c2 e2 | [Be]6!p! B2 | B3 B B2 Bc | %6
w: |stjär- na * du som *|tän- des i|Ös- ter- land en|gång, när|Fräl- sa- ren oss *|
 d4 d2!pp! d2 | ^c3 c (=Bc)(=d=e) | (=d2 ^c=B) c2 c2 |[K:C]!<(! [Ec]3 [Ec] A2!<)!"^molto" A2 | %10
w: sän- des, när|Fräl- sa- ren * oss *|sän- * * des vid|äng- la- ska- rors|
 [Gc]6 c2 |!f! (c2 B)A B2 G2 |!>(! c8-!>)! | c4 z2!p! e2 | e2 (dc) B2 (A!>(!^G) | %15
w: sång, vid|äng- * la- ska- rors|sång.|* Hur|sek- ler * än för- *|
 (A2 !courtesy!=GF)!>)! E2 E2 | ^G2 A2 D2 E2 | ^D4 D4 | z4 z2 F2 |!<(! _B3 B!<)! [B_e]2 [Ae]2 | %20
w: run- * * nit, hur|sek- ler än för-|run- nit|din|glans har ej för-|
!>(! (_e3 d)!>)! d2 z2 | z2 _A2 A2 (A_B) | _B2 B2 z4 | z2 (G_A) _B2 B2 | _A6!p! A2 | %25
w: brun- * nit,|har ej för- *|brun- nit,|men * ba- nar|väg, men|
 ^G3 ^A ^B2 ^c2 | !courtesy!=A3 !courtesy!=B!<(! e2 e2!<)! |[K:Db] f6 z2 |!>(! (=A4 B4)!>)! | %29
w: ba- nar vä- gen,|ba- nar vä- gen|ljus,|hem, *|
 B4 A2!<(! A2!<)! | ([GB]2 [Ac]2) e4 |!f! d8- |!>(! d8!>)!!p! |] %33
w: hem till vår|Fa- * ders|hus.||
V:5
 x2 | x8 | x8 | x8 | x8 | x8 | x8 | x8 | =E4 E2 E2 |[K:C] x8 | x8 | x8 | x8 | x8 | x8 | x8 | x8 | %17
 x8 | x8 | x8 | _A4 A2 x2 | x8 | x8 | x8 | x8 | x8 | x8 |[K:Db] x8 | x8 | x8 | x4 (B2 c2) | x8 | %32
 x8 |] %33
V:6
 z2!p! |"^dolce" D2 D2 D2 D2 | D4 D2 B,2 | F,3 F, A,2 A,2 | E,6!p! E,2 | E,3 F, (G,A,)(B,C) | %6
w: |stjär- na du som|tän- des i|Ös- ter- land en|gång, när|Fräl- sa- ren * oss *|
 D4 D,2!pp! D,2 | =E,3 E, E,2 E,2 | =A,,4 A,,2 A,,2 | %9
w: sän- des, när|Fräl- sa- ren oss|sän- des vid|
[K:C]!<(! A,,3 A,, [A,,D,]2!<)!"^molto" [A,,D,]2 | [G,,E,]6 [E,G,]2 | %11
w: äng- la- ska- rors|sång, vid|
!f! [D,F,]3 [D,F,] [G,,D,]2 D,2 |!>(! [C,G,]8-!>)! | [C,G,]4 z4 | z8 | z4 z2!p! C,2 | %16
w: äng- la- ska- rors|sång.|||hur|
 D,2 C,2 B,,2 A,,2 | (A,,3 B,,) C,4 | z2 C,2 F,2 _E,2 | [D,F,]3 [D,F,] [C,G,]2 [C,F,]2 | %20
w: sek- ler än för-|run- * nit|din glans, din|glans har ej för-|
 [!courtesy!=B,,F,]4 [B,,F,]2 z2 | z2 !courtesy!=B,,2 _B,,2 B,,2 | _B,,2 _E,2 z4 | %23
w: brun- nit,|har ej för-|brun- nit,|
 z2 (_E,F,) G,2 _B,2 | _A,6!p! _A,,2 | ^C,6 C,2 | !courtesy!=E,4!<(! [!courtesy!=A,,G,]4!<)! | %27
w: men * ba- nar|väg, men|ba- nar|vä- gen|
[K:Db] [A,,A,]6 z2 |!>(! ([F,,C,]4 [G,,D,]4)!>)! | [=G,,E,]4 [A,,F,]2!<(! [A,,F,]2!<)! | %30
w: ljus,|hem, *|hem till vår|
 (E,2 F,2) (G,2 A,2) |!f! [D,A,]8- |!>(! [D,A,]8!>)!!p! |] %33
w: Fa- * ders *|hus.||
V:7
 x2 | x8 | x8 | x8 | x8 | x8 | x8 | x8 | x8 |[K:C] x8 | x8 | x8 | x8 | x8 | x8 | x8 | x8 | %17
 F,,4 F,,4 | x8 | x8 | x8 | x8 | x8 | x8 | x8 | x8 | x8 |[K:Db] x8 | x8 | x8 | A,,4 A,,4 | x8 | %32
 x8 |] %33

